icons/op-underline-24.svg

<svg width="24" height="24" viewBox="0 0 24 24" fill="none" xmlns="http://www.w3.org/2000/svg">
<path d="M6.74257 12.4375V4H8.52475V12.4375C8.52475 13.0312 8.61386 13.5625 8.76238 14.0312C8.91089 14.5312 9.14851 14.9375 9.44554 15.3125C9.74257 15.6562 10.099 15.9375 10.5446 16.125C10.9604 16.3125 11.4653 16.4062 12 16.4062C12.5644 16.4062 13.0396 16.3125 13.4554 16.125C13.901 15.9375 14.2574 15.6562 14.5545 15.3125C14.8515 14.9688 15.0891 14.5312 15.2376 14.0625C15.3861 13.5625 15.4752 13.0312 15.4752 12.4688V4H17.2574V12.4375C17.2574 13.25 17.1386 14 16.901 14.6875C16.6634 15.3438 16.3069 15.9375 15.8614 16.4375C15.4158 16.9375 14.8515 17.3438 14.198 17.625C13.5446 17.9062 12.8317 18.0625 12 18.0625C11.198 18.0625 10.4554 17.9062 9.80198 17.625C9.14851 17.3438 8.61386 16.9375 8.13861 16.4375C7.69307 15.9375 7.33663 15.3438 7.09901 14.6875C6.86139 14 6.74257 13.25 6.74257 12.4375ZM6 19H18V20H6V19Z" fill="black"/>
</svg>

<svg xmlns="http://www.w3.org/2000/svg" width="24" height="24" viewBox="0 0 24 24"><path d="M6.743 12.438V4h1.782v8.438c0 .593.089 1.124.237 1.593.149.5.387.907.684 1.281a2.94 2.94 0 0 0 1.099.813c.415.187.92.281 1.455.281.564 0 1.04-.094 1.455-.281a2.95 2.95 0 0 0 1.1-.813c.296-.343.534-.781.683-1.25.148-.5.237-1.031.237-1.593V4h1.782v8.438a6.84 6.84 0 0 1-.356 2.25 5.392 5.392 0 0 1-1.04 1.75c-.445.5-1.01.906-1.663 1.187a5.44 5.44 0 0 1-2.198.437 5.547 5.547 0 0 1-2.198-.437c-.653-.281-1.188-.687-1.663-1.187a5.392 5.392 0 0 1-1.04-1.75 6.84 6.84 0 0 1-.356-2.25ZM6 19h12v1H6v-1Z"/></svg>
